X: 1
T:The Bagad Reel
R:Reel
M:C|
L:1/8
K:Hp
f2BB dcde | f2Bd cAce | f2BB dcBd | [1 cAce acde :| [2 cAce acdc ||
BBfB Bfdc | BBfd ecdc | BBfB Bfdc | AAce acdc :|

